ix/card-remove-1_bulk.svg

<svg viewBox="0 0 24 24" fill="none" xmlns="http://www.w3.org/2000/svg" height="1em" width="1em">
  <path opacity=".4" d="M22 7.77V9H2V7.54C2 5.25 3.86 3.4 6.15 3.4H16v2.57C16 7.24 16.76 8 18.03 8h2.94c.4 0 .74-.07 1.03-.23Z" fill="#292D32"/>
  <path d="M2 9v7.46c0 2.29 1.86 4.14 4.15 4.14h11.7c2.29 0 4.15-1.85 4.15-4.14V9H2Zm6 8.25H6c-.41 0-.75-.34-.75-.75s.34-.75.75-.75h2c.41 0 .75.34.75.75s-.34.75-.75.75Zm6.5 0h-4c-.41 0-.75-.34-.75-.75s.34-.75.75-.75h4c.41 0 .75.34.75.75s-.34.75-.75.75ZM20.97 1h-2.94C16.76 1 16 1.76 16 3.03v2.94C16 7.24 16.76 8 18.03 8h2.94C22.24 8 23 7.24 23 5.97V3.03C23 1.76 22.24 1 20.97 1Zm.37 4.49c.11.13.17.27.17.44 0 .14-.06.3-.17.41a.61.61 0 0 1-.85 0l-.99-.99-.98 1c-.23.23-.62.23-.86-.01a.61.61 0 0 1 0-.85l1-.98-.99-.99a.622.622 0 0 1-.01-.86c.23-.24.62-.23.86.01l.98.99 1-1a.61.61 0 0 1 .85 0c.11.13.16.28.17.44 0 .14-.06.3-.16.42l-1 1 .98.97Z" fill="#292D32"/>
</svg>

<svg viewBox="0 0 24 24" fill="none" xmlns="http://www.w3.org/2000/svg" height="1em" width="1em">
  <path opacity="0.4" d="M22 7.7699V8.9999H2V7.5399C2 5.2499 3.86 3.3999 6.15 3.3999H16V5.9699C16 7.2399 16.76 7.9999 18.03 7.9999H20.97C21.37 7.9999 21.71 7.9299 22 7.7699Z" fill="#292D32"/>
  <path d="M2 9V16.46C2 18.75 3.86 20.6 6.15 20.6H17.85C20.14 20.6 22 18.75 22 16.46V9H2ZM8 17.25H6C5.59 17.25 5.25 16.91 5.25 16.5C5.25 16.09 5.59 15.75 6 15.75H8C8.41 15.75 8.75 16.09 8.75 16.5C8.75 16.91 8.41 17.25 8 17.25ZM14.5 17.25H10.5C10.09 17.25 9.75 16.91 9.75 16.5C9.75 16.09 10.09 15.75 10.5 15.75H14.5C14.91 15.75 15.25 16.09 15.25 16.5C15.25 16.91 14.91 17.25 14.5 17.25Z" fill="#292D32"/>
  <path d="M20.97 1H18.03C16.76 1 16 1.76 16 3.03V5.97C16 7.24 16.76 8 18.03 8H20.97C22.24 8 23 7.24 23 5.97V3.03C23 1.76 22.24 1 20.97 1ZM21.34 5.49C21.45 5.62 21.51 5.76 21.51 5.93C21.51 6.07 21.45 6.23 21.34 6.34C21.11 6.57 20.72 6.57 20.49 6.34L19.5 5.35L18.52 6.35C18.29 6.58 17.9 6.58 17.66 6.34C17.43 6.11 17.43 5.72 17.66 5.49L18.66 4.51L17.67 3.52C17.44 3.29 17.43 2.9 17.66 2.66C17.89 2.42 18.28 2.43 18.52 2.67L19.5 3.66L20.5 2.66C20.73 2.43 21.12 2.43 21.35 2.66C21.46 2.79 21.51 2.94 21.52 3.1C21.52 3.24 21.46 3.4 21.36 3.52L20.36 4.52L21.34 5.49Z" fill="#292D32"/>
</svg>
